svg/icon/wtc.svg

<svg xmlns="http://www.w3.org/2000/svg" xmlns:xlink="http://www.w3.org/1999/xlink" width="32" height="32" viewBox="0 0 32 32">
  <defs>
    <linearGradient id="wtc-c" x1="50%" x2="50%" y1="0%" y2="100%">
      <stop offset="0%" stop-color="#FFF" stop-opacity=".5"/>
      <stop offset="100%" stop-opacity=".5"/>
    </linearGradient>
    <circle id="wtc-b" cx="16" cy="15" r="15"/>
    <filter id="wtc-a" width="111.7%" height="111.7%" x="-5.8%" y="-4.2%" filterUnits="objectBoundingBox">
      <feOffset dy=".5" in="SourceAlpha" result="shadowOffsetOuter1"/>
      <feGaussianBlur in="shadowOffsetOuter1" result="shadowBlurOuter1" stdDeviation=".5"/>
      <feComposite in="shadowBlurOuter1" in2="SourceAlpha" operator="out" result="shadowBlurOuter1"/>
      <feColorMatrix in="shadowBlurOuter1" values="0 0 0 0 0   0 0 0 0 0   0 0 0 0 0  0 0 0 0.199473505 0"/>
    </filter>
    <path id="wtc-e" d="M25.88128,15.432 C24.96,15.192 24.00336,15.15168 23.05792,15.1008 C23.15136,14.81904 23.24992,14.53824 23.36192,14.26272 C23.392,14.17024 23.47904,14.12128 23.55952,14.07728 C24.004,13.84304 24.44544,13.6024 24.89232,13.37184 C25.00432,13.30352 25.14544,13.25664 25.2104,13.13456 C25.23648,12.94432 25.10736,12.78592 25.0184,12.632 C24.7216,12.17056 24.45152,11.69088 24.12464,11.2504 C24.01136,11.0904 23.78576,11.0936 23.62864,11.17872 C23.01088,11.46384 22.39552,11.75392 21.77744,12.03808 C21.6584,12.0952 21.53392,12.1456 21.42928,12.22784 C21.31264,12.32272 21.25696,12.46784 21.20656,12.60544 C20.9176,13.43616 20.60432,14.25824 20.30848,15.08656 C20.28576,15.14896 20.25472,15.23056 20.17488,15.23056 C19.53488,15.276 18.89872,15.35744 18.26208,15.43248 C17.8932267,14.44048 17.52384,13.4490133 17.15392,12.45808 C17.1016,12.28048 16.95584,12.1288 16.76032,12.13232 C16.24624,12.12512 15.73104,12.128 15.21648,12.12656 C15.092,12.13568 14.92992,12.11792 14.85392,12.2408 C14.7368,12.4488 14.69072,12.68624 14.60416,12.90688 C14.15728,14.06448 13.7216,15.22688 13.2888,16.38912 C12.92528,16.48208 12.56656,16.59872 12.19712,16.66896 C11.7208,15.38128 11.24096,14.09488 10.77424,12.80368 C10.69872,12.61872 10.6512,12.41728 10.53504,12.25184 C10.44112,12.13184 10.27904,12.1216 10.13808,12.12256 C9.5552,12.12592 8.97232,12.13472 8.38944,12.13856 C8.23504,12.14288 8.05584,12.13088 7.93632,12.248 C7.86752,12.49296 8.00992,12.72384 8.08592,12.94896 C8.63248,14.45296 9.2008,15.9496 9.7392,17.45664 C9.13408,17.6730667 8.53674667,17.9099733 7.9472,18.16736 C7.8032,18.23808 7.64704,18.28928 7.51632,18.38432 C7.17168,18.5136 6.85408,18.70528 6.53216,18.88192 C5.96048,19.22224 5.38336,19.59312 4.96848,20.12368 C4.77776,20.37968 4.6136,20.72736 4.74672,21.04592 C4.8672,21.37616 5.18976,21.56448 5.48992,21.70912 C5.93392,21.90512 6.40928,22.02096 6.88704,22.0984 C8.33216,22.30128 9.79808,22.2904 11.2504,22.18416 C11.3424,22.17792 11.43344,22.19632 11.52352,22.21616 C11.60352,22.47136 11.64992,22.75648 11.83328,22.96224 C11.92096,23.07024 12.06656,23.02864 12.17888,22.99328 C12.59488,22.85872 13.01392,22.73856 13.43184,22.61184 C13.76448,22.5416 13.8656,22.1824 13.97072,21.90656 C15.1496,21.7376 16.32272,21.52848 17.48544,21.2704 C19.58144,20.80272 21.6576,20.2144 23.64384,19.39152 C24.42784,19.05408 25.2032,18.6896 25.92016,18.22528 C26.39408,17.90768 26.87536,17.5592 27.17504,17.06288 C27.3552,16.77088 27.37792,16.34688 27.13104,16.08592 C26.80928,15.72272 26.32896,15.57312 25.88128,15.432 M9.9392,22.0336 C9.5528,22.0656 9.16464,22.0632 8.77728,22.05968 C8.1552,22.0224 7.52928,22.01712 6.91728,21.88368 C6.44096,21.80144 5.95056,21.68864 5.552,21.40096 C5.37136,21.26976 5.21072,21.06928 5.216,20.83552 C5.21408,20.5624 5.38064,20.32624 5.55008,20.12672 C5.93536,19.69776 6.42688,19.3856 6.9168,19.08976 C7.8586144,18.5693606 8.84419253,18.1324383 9.86224,17.784 C10.3594133,19.1218133 10.8533333,20.4610667 11.344,21.80176 C11.36,21.84768 11.376,21.89424 11.392,21.94064 L11.284,21.95664 C10.83728,22.008 10.388,22.02544 9.9392,22.0336 M12.68944,17.95056 C12.5476782,17.6354548 12.4233832,17.3127793 12.31712,16.984 C12.58672,16.90176 12.85792,16.82128 13.13424,16.76224 C12.99984,17.16336 12.85504,17.56128 12.68944,17.95056 M14.08144,21.61456 C14.53552,20.36752 15.008,19.12672 15.46704,17.88048 C15.63456,17.46608 15.76624,17.03808 15.94288,16.62704 C16.07088,16.85024 16.14864,17.09568 16.2416,17.3344 C16.6816,18.53792 17.13584,19.73712 17.57344,20.94208 C16.42016,21.21648 15.25488,21.44928 14.0808,21.61392 M19.22768,17.97488 C18.93472,17.21584 18.63904,16.45712 18.3688,15.6904 C18.9608,15.59696 19.55632,15.5304 20.15232,15.47152 C19.86512,16.3128 19.53728,17.14064 19.22704,17.97424 M22.6656384,8.77081379 L20.0079659,9.68238366 C20.0086262,9.69649288 20.00896,9.71068745 20.00896,9.72496 C20.00896,10.2196304 19.6079504,10.62064 19.11328,10.62064 C18.6186096,10.62064 18.2176,10.2196304 18.2176,9.72496 C18.2176,9.62589824 18.2336818,9.53059259 18.2633771,9.44151138 L16.5120295,8.23121904 C16.4044018,8.30316783 16.2750201,8.34512 16.13584,8.34512 C16.019504,8.34512 15.9100139,8.31580918 15.8143518,8.26416954 L12.5527854,11.005663 C12.5414213,11.1959284 12.3835203,11.34672 12.1904,11.34672 C12.0044744,11.34672 11.8511928,11.2069546 11.8298891,11.0267579 L8.50993261,8.55192656 C8.41760646,8.60510207 8.31051547,8.63552 8.19632,8.63552 C7.84877825,8.63552 7.56704,8.35378175 7.56704,8.00624 C7.56704,7.65869825 7.84877825,7.37696 8.19632,7.37696 C8.54367902,7.37740076 8.82515924,7.65888098 8.8256,8.00624 C8.8256,8.0560973 8.81980185,8.10460037 8.80884306,8.1511117 L12.1286923,10.6258631 C12.1487478,10.622429 12.169365,10.62064 12.1904,10.62064 C12.2041551,10.62064 12.2177316,10.621405 12.2310892,10.6228947 L15.49259,7.88145639 C15.4702023,7.81416026 15.45808,7.74217579 15.45808,7.66736 C15.45808,7.29304349 15.7615235,6.9896 16.13584,6.9896 C16.5101565,6.9896 16.8136,7.29304349 16.8136,7.66736 C16.8136,7.71982286 16.8076392,7.7708935 16.7963579,7.81993161 L18.5478201,9.03030312 C18.7020172,8.90463271 18.8988488,8.82928 19.11328,8.82928 C19.4160162,8.82928 19.6836729,8.97947371 19.8458005,9.20941178 L22.50348,8.29783954 C22.4865798,8.20324601 22.47776,8.105853 22.47776,8.0064 C22.47776,7.09729512 23.2147351,6.36032 24.12384,6.36032 L24.12384,6.36 C25.032631,6.36105836 25.7690383,7.09760876 25.76992,8.0064 C25.76992,8.91550488 25.0329449,9.65248 24.12384,9.65248 C23.4906607,9.65248 22.9409804,9.29497818 22.6656384,8.77081379 Z M26.79296,16.6736 C26.71696,16.98832 26.49568,17.24192 26.26496,17.4576 C25.72096,17.96112 25.06192,18.31744 24.4064,18.65344 C23.3797658,19.1532832 22.3170442,19.5753233 21.2272,19.916 C21.3527291,19.6621188 21.459365,19.3993262 21.54624,19.12976 C22.02256,17.8648 22.49216,16.5968 22.96464,15.3304 C23.75616,15.32944 24.55392,15.3584 25.3296,15.5304 C25.73968,15.62096 26.15792,15.74 26.4976,15.99664 C26.70176,16.14912 26.85328,16.41104 26.79232,16.67296 L26.79296,16.6736 Z M24.12384,7.42544 C23.8029847,7.42544 23.54288,7.68554465 23.54288,8.0064 C23.54288,8.24137639 23.6844264,8.45321548 23.9015162,8.54313705 C24.1186061,8.63305862 24.3684874,8.58335415 24.5346408,8.41720076 C24.7007942,8.25104736 24.7504986,8.00116611 24.6605771,7.78407623 C24.5706555,7.56698636 24.3588164,7.42544 24.12384,7.42544 Z"/>
    <filter id="wtc-d" width="115.5%" height="121%" x="-7.7%" y="-7.5%" filterUnits="objectBoundingBox">
      <feOffset dy=".5" in="SourceAlpha" result="shadowOffsetOuter1"/>
      <feGaussianBlur in="shadowOffsetOuter1" result="shadowBlurOuter1" stdDeviation=".5"/>
      <feColorMatrix in="shadowBlurOuter1" values="0 0 0 0 0   0 0 0 0 0   0 0 0 0 0  0 0 0 0.204257246 0"/>
    </filter>
  </defs>
  <g fill="none" fill-rule="evenodd">
    <g fill-rule="nonzero">
      <use fill="#000" filter="url(#wtc-a)" xlink:href="#wtc-b"/>
      <use fill="#08308F" fill-rule="evenodd" xlink:href="#wtc-b"/>
      <use fill="url(#wtc-c)" fill-rule="evenodd" style="mix-blend-mode:soft-light" xlink:href="#wtc-b"/>
      <circle cx="16" cy="15" r="14.5" stroke="#000" stroke-opacity=".097"/>
    </g>
    <g fill-rule="nonzero">
      <use fill="#000" filter="url(#wtc-d)" xlink:href="#wtc-e"/>
      <use fill="#FFF" fill-rule="evenodd" xlink:href="#wtc-e"/>
    </g>
  </g>
</svg>

<svg xmlns="http://www.w3.org/2000/svg" xmlns:xlink="http://www.w3.org/1999/xlink" width="32" height="32"><defs><linearGradient id="c" x1="50%" x2="50%" y1="0%" y2="100%"><stop offset="0%" stop-color="#FFF" stop-opacity=".5"/><stop offset="100%" stop-opacity=".5"/></linearGradient><circle id="b" cx="16" cy="15" r="15"/><filter id="a" width="111.7%" height="111.7%" x="-5.8%" y="-4.2%" filterUnits="objectBoundingBox"><feOffset dy=".5" in="SourceAlpha" result="shadowOffsetOuter1"/><feGaussianBlur in="shadowOffsetOuter1" result="shadowBlurOuter1" stdDeviation=".5"/><feComposite in="shadowBlurOuter1" in2="SourceAlpha" operator="out" result="shadowBlurOuter1"/><feColorMatrix in="shadowBlurOuter1" values="0 0 0 0 0 0 0 0 0 0 0 0 0 0 0 0 0 0 0.199473505 0"/></filter><path id="e" d="M25.881 15.432c-.921-.24-1.878-.28-2.823-.331.093-.282.192-.563.304-.838.03-.093.117-.142.198-.186.444-.234.885-.475 1.332-.705.112-.068.253-.115.318-.237.026-.19-.103-.35-.192-.503-.296-.461-.566-.941-.893-1.382-.114-.16-.34-.156-.496-.071-.618.285-1.233.575-1.852.86-.119.056-.243.107-.348.189-.116.095-.172.24-.222.377-.29.831-.603 1.653-.899 2.482-.022.062-.053.144-.133.144-.64.045-1.276.126-1.913.201l-1.108-2.974c-.052-.178-.198-.33-.394-.326-.514-.007-1.029-.004-1.544-.005-.124.009-.286-.01-.362.114-.117.208-.163.445-.25.666-.447 1.157-.882 2.32-1.315 3.482-.364.093-.722.21-1.092.28-.476-1.288-.956-2.574-1.423-3.865-.075-.185-.123-.387-.239-.552-.094-.12-.256-.13-.397-.13-.583.004-1.166.013-1.749.017-.154.004-.333-.008-.453.109-.068.245.074.476.15.701.546 1.504 1.115 3 1.653 4.508a28.28 28.28 0 0 0-1.792.71c-.144.071-.3.122-.43.217-.345.13-.663.321-.985.498-.572.34-1.149.711-1.564 1.242-.19.256-.354.603-.221.922.12.33.443.518.743.663.444.196.92.312 1.397.39 1.445.202 2.911.191 4.363.085a.97.97 0 0 1 .274.032c.08.255.126.54.31.746.087.108.233.067.345.031.416-.134.835-.254 1.253-.381.332-.07.434-.43.539-.705a46.97 46.97 0 0 0 3.514-.637c2.096-.467 4.173-1.056 6.159-1.878.784-.338 1.56-.702 2.276-1.167.474-.317.955-.666 1.255-1.162.18-.292.203-.716-.044-.977-.322-.363-.802-.513-1.25-.654M9.94 22.034c-.386.032-.774.03-1.162.026-.622-.038-1.248-.043-1.86-.176-.476-.083-.966-.195-1.365-.483-.18-.131-.341-.332-.336-.565-.002-.274.165-.51.334-.71.385-.428.877-.74 1.367-1.036a18.43 18.43 0 0 1 2.945-1.306c.497 1.338.991 2.677 1.482 4.018l.048.139-.108.016c-.447.051-.896.068-1.345.077m2.75-4.083a9.408 9.408 0 0 1-.372-.967c.27-.082.54-.163.817-.222-.134.401-.279.8-.445 1.189m1.392 3.664c.455-1.247.927-2.488 1.386-3.735.168-.414.3-.842.476-1.253.128.223.206.469.299.707.44 1.204.894 2.403 1.331 3.608a37.766 37.766 0 0 1-3.492.672m5.147-3.64c-.293-.758-.589-1.517-.86-2.284.593-.093 1.188-.16 1.784-.218-.287.84-.615 1.669-.925 2.502m3.439-9.203l-2.658.911a.896.896 0 1 1-1.745-.24l-1.751-1.21a.675.675 0 0 1-.698.032l-3.261 2.742a.363.363 0 0 1-.723.02L8.51 8.553a.63.63 0 1 1 .299-.4l3.32 2.474a.365.365 0 0 1 .102-.003l3.262-2.742a.677.677 0 1 1 1.303-.061l1.752 1.21a.895.895 0 0 1 1.298.18l2.657-.912a1.646 1.646 0 0 1 1.62-1.938 1.646 1.646 0 1 1-1.458 2.41zm4.127 7.903c-.076.314-.297.568-.528.784-.544.503-1.203.86-1.859 1.195-1.026.5-2.089.922-3.179 1.263a5.76 5.76 0 0 0 .32-.786c.476-1.265.945-2.533 1.418-3.8.791 0 1.589.028 2.365.2.41.091.828.21 1.168.467.204.152.355.414.294.676h.001zm-2.67-9.249a.581.581 0 1 0 0 1.162.581.581 0 0 0 0-1.162z"/><filter id="d" width="115.5%" height="121%" x="-7.7%" y="-7.5%" filterUnits="objectBoundingBox"><feOffset dy=".5" in="SourceAlpha" result="shadowOffsetOuter1"/><feGaussianBlur in="shadowOffsetOuter1" result="shadowBlurOuter1" stdDeviation=".5"/><feColorMatrix in="shadowBlurOuter1" values="0 0 0 0 0 0 0 0 0 0 0 0 0 0 0 0 0 0 0.204257246 0"/></filter></defs><g fill="none"><use fill="#000" filter="url(#a)" xlink:href="#b"/><use fill="#08308F" fill-rule="evenodd" xlink:href="#b"/><use fill="url(#c)" fill-rule="evenodd" style="mix-blend-mode:soft-light" xlink:href="#b"/><circle cx="16" cy="15" r="14.5" stroke="#000" stroke-opacity=".097"/><use fill="#000" filter="url(#d)" xlink:href="#e"/><use fill="#FFF" fill-rule="evenodd" xlink:href="#e"/></g></svg>
